img/tel.svg

<svg width="14" height="14" viewBox="0 0 14 14" fill="none" xmlns="http://www.w3.org/2000/svg">
<path fill-rule="evenodd" clip-rule="evenodd" d="M0.000353217 2.99613C0.000353217 2.99613 -0.0303387 2.19132 0.480475 1.14992C0.840817 0.413419 2.24357 0.00656711 2.24357 0.00656711C2.24357 0.00656711 2.84348 -0.145884 4.04923 1.01827C4.5285 1.46189 4.83329 2.06231 4.90851 2.71103C4.95207 3.30301 3.68988 4.56516 3.68988 4.56516C3.78757 5.28983 4.09015 5.97156 4.56203 6.53017C5.058 7.10729 5.91231 8.00712 6.36076 8.42784C6.74486 8.78817 7.17349 9.2584 7.7437 9.63655C8.86532 10.38 9.1346 10.3127 9.1346 10.3127C9.1346 10.3127 10.7324 8.97428 11.2105 9.0208C11.5738 9.05743 12.0886 9.29699 12.7469 9.85828C13.236 10.274 13.5488 10.5889 13.7943 11.0086C13.8817 11.1535 13.9505 11.3088 13.9992 11.4709C13.9992 11.4709 14.0635 12.1351 13.032 13.1924C12.0054 14.2427 10.5898 13.9675 10.5898 13.9675C10.5898 13.9675 9.77606 13.8467 8.44458 13.2201C6.97039 12.5012 5.62721 11.5402 4.47094 10.377C3.3919 9.26237 1.97727 7.55671 1.28926 6.36979C0.423051 4.87797 0.000353217 2.99613 0.000353217 2.99613Z" fill="white"/>
</svg>

<svg width="14" height="14" viewBox="0 0 14 14" fill="none" xmlns="http://www.w3.org/2000/svg"><path fill-rule="evenodd" clip-rule="evenodd" d="M0 2.996s-.03-.805.48-1.846C.84.413 2.244.007 2.244.007s.6-.153 1.805 1.011c.48.444.784 1.044.86 1.693.043.592-1.22 1.854-1.22 1.854.099.725.401 1.407.873 1.965a31.1 31.1 0 001.799 1.898c.384.36.812.83 1.383 1.209 1.121.743 1.39.676 1.39.676s1.598-1.339 2.076-1.292c.364.036.879.276 1.537.837.489.416.802.73 1.047 1.15.088.146.156.3.205.463 0 0 .064.664-.967 1.721-1.027 1.05-2.442.775-2.442.775s-.814-.12-2.145-.747a14.668 14.668 0 01-3.974-2.843C3.39 9.262 1.977 7.557 1.289 6.37.423 4.878 0 2.996 0 2.996z" fill="#fff"/></svg>
